X: 1263
T: Kordon Boyu Seyrine Düştü
C: Erol Sayan
O: Turkey
F: http://compmusic.upf.edu/node/140
N: rast--sarki--evfer--kordonboyu--erol_sayan
N: makam= rast
N: form= sarki
N: usul= evfer = 9/8
M: 9/8
L: 1/16
K: C _1/4B ^f  
Q: 1/4=108
%%MIDI tuningsystem comma53
c2c2 e2e2 d2c2 B3A G2 | g2 fedB cABG AFGA Bcd2  | 
w:  SAZ  |   | 
c2c2 e2e2 d2c2 B3A G2 | g2 fedB cABG AFG2 G2z2  | 
w:   |   | 
c2c2 e2e2 d2c2 B3A G2 | g2 fedB cABG AFGA Bcd2  | 
w:  SAZ  |   | 
c2c2 e2e2 d2c2 B3A G2 | g2 fedB cABG AFG2 G2z2  | 
w:   |   | 
c2c2 cc3 c2Bc d2d2 z2 | d3ddd3d2 cde2 e2z2  | \
w:  Kor don bo yu sey ri ne düş tü  |  tit ret e fem vur di zin üs te  | 
d2g2 f2a2 g2fg e2e2 z2 | 
w:  Bon cuk gi bi al nı na düş tü  | 
c2 B2Ac3BG AFG2 G2z2  | c2c2 cc3 c2Bc d2d2 z2 | 
w:  par lar te nin ter *  gö zün üs te  |  Kor don bo yu sey ri ne düş tü  | 
d3ddd3d2 cde2 e2z2  | d2g2 fa3 g2fg e2e2 z2 | \
w:  tit ret e fem vur di zin üs te  |  Bon cuk gi bi al nı na düş tü  | 
c2 B2Ac3BG AFG2 G2z2  | 
w:  par lar te nin ter *  gö zün üs te  | 
G12 d2d2 z2 | d12g2 g2z2  | b4 a4 g4 f2b2 ag | \
w:  Hey hey hey  |  hey hey hey  |  hey  | 
g2 fede dcBc Bcdd efg2  | 
w:  hey  | 
gg3 gg3 f2ef d2e2 f2 | g2 f2e2 d2c2 Bcd4z2  | \
w:  E fem e fem ça kır e fem  |  kı lın cı şa kır e *  fem  | 
cc2z e2e2 d2c2 B3A G2 | 
w:  Se ni gö ren kız *  lar *  da  | 
ce3dB cABG AFG4z2  | cc2z ee2z d3c B3A G2 | 
w:  me cal mi *  ka *  lır *  e *  fem  |  Se ni gö ren kız *  lar *  da  | 
ce3dB cABG AFG4z2  | |


